T: Foxhunter, The
M: 4/4
L: 1/8
K: Gmaj
d2 BG dGBG|dGBG AGEG|d2 BG dGBG|GABG AGEG:|
|:D3B BABG|DGBG AGEG|D3B BABG|AcBG AGEG:|
|:gedB G2 Bd|gdBd eA A2|gedB GBdB|ABcd eA A2:|
|:dggf g3e|dg g2 egdB|dggf g3d|(3efg dB AGAB:|
|:G2 BG dGBG|GB B2 AGAB|G2 BG dGBG|(3efg dB AGAB:|
